Printex-remake/img/icons/catalog_sliced/07.svg

<svg width="72" height="89" viewBox="0 0 72 89" fill="none" xmlns="http://www.w3.org/2000/svg">
<path fill-rule="evenodd" clip-rule="evenodd" d="M58.0401 46.5126L41.3242 23.6523L30.5503 50.8256L23.8444 46.9539L7.12689 75.9094L24.6064 65.8169L24.6063 65.817L58.0401 46.5126Z" fill="#C4C4C4"/>
<circle r="7.05223" transform="matrix(0.86601 -0.500028 -3.18907e-05 1 16.5329 40.0669)" fill="#C4C4C4"/>
<path d="M70.6934 51.5644L53.9776 28.7041L43.2037 55.8774L36.4978 52.0057L19.7803 80.9613L70.6934 51.5644Z" fill="#F2F2F2"/>
<path d="M70.6934 51.5644L53.9776 28.7041L43.2037 55.8774L36.4978 52.0057L19.7803 80.9613" stroke="black"/>
<circle r="7.05223" transform="matrix(0.86601 -0.500028 -3.18907e-05 1 29.1862 45.1187)" fill="#F2F2F2"/>
<path d="M29.3495 52.3054C25.9759 54.2533 23.2411 52.6797 23.2412 48.7905C23.2413 44.9014 25.9763 40.1696 29.3499 38.2217" stroke="black"/>
<path d="M8.06118 37.3849L71.077 1L71.0754 51.4905L8.05957 87.8753L8.06118 37.3849Z" stroke="black" stroke-linejoin="bevel"/>
<circle r="2.09172" transform="matrix(0.86601 -0.500028 -3.18351e-05 1 12.7655 41.8383)" fill="black"/>
<path d="M4.25781 36.0737L13.4903 39.8753" stroke="black"/>
<path d="M2.08594 39.8755L11.8615 43.6771" stroke="black"/>
<circle r="2.09172" transform="matrix(0.86601 -0.500028 -3.18351e-05 1 67.0741 9.25332)" fill="black"/>
<path d="M58.5674 3.48877L67.7999 7.29037" stroke="black"/>
<path d="M56.3945 7.29053L66.1701 11.0921" stroke="black"/>
<circle r="2.09172" transform="matrix(0.86601 -0.500028 -3.18351e-05 1 11.6795 80.9408)" fill="black"/>
<path d="M3.17188 75.1763L12.4043 78.9779" stroke="black"/>
<path d="M1 78.978L10.7756 82.7796" stroke="black"/>
</svg>

<svg width="72" height="89" fill="none" xmlns="http://www.w3.org/2000/svg"><path fill-rule="evenodd" clip-rule="evenodd" d="M58.04 46.513l-16.716-22.86L30.55 50.825l-6.706-3.872L7.127 75.909l17.48-10.092L58.04 46.513z" fill="#C4C4C4"/><circle r="7.052" transform="matrix(.86601 -.50003 -.00003 1 16.533 40.067)" fill="#C4C4C4"/><path d="M70.693 51.564l-16.715-22.86-10.774 27.173-6.706-3.871L19.78 80.96l50.913-29.397z" fill="#F2F2F2"/><path d="M70.693 51.564l-16.715-22.86-10.774 27.173-6.706-3.871L19.78 80.96" stroke="#000"/><circle r="7.052" transform="matrix(.86601 -.50003 -.00003 1 29.186 45.119)" fill="#F2F2F2"/><path d="M29.35 52.305c-3.374 1.948-6.109.375-6.109-3.514 0-3.89 2.735-8.621 6.109-10.57" stroke="#000"/><path d="M8.061 37.385L71.077 1l-.002 50.49L8.06 87.875l.001-50.49z" stroke="#000" stroke-linejoin="bevel"/><circle r="2.092" transform="matrix(.86601 -.50003 -.00003 1 12.765 41.838)" fill="#000"/><path d="M4.258 36.074l9.232 3.801m-11.404.001l9.775 3.801" stroke="#000"/><circle r="2.092" transform="matrix(.86601 -.50003 -.00003 1 67.074 9.253)" fill="#000"/><path d="M58.567 3.489L67.8 7.29m-11.405 0l9.775 3.802" stroke="#000"/><circle r="2.092" transform="matrix(.86601 -.50003 -.00003 1 11.68 80.94)" fill="#000"/><path d="M3.172 75.176l9.232 3.802M1 78.978l9.776 3.802" stroke="#000"/></svg>
